X: 3319
T: UPPER DENTON
%R: hornpipe, reel
B: James Kerr "Merry Melodies" v.3 p.35 #319
Z: 2016 John Chambers <jc:trillian.mit.edu>
M: C
L: 1/8
K: D
(ag) |\
fadf AdFA | DFAd FAdf |\
gfga bged | c2A2 A2 (fe) |\
dAFA GBAG | FAdf Adfa |\
gfed cbag | f2d2 d2 :|
|: (cd) |\
ecfd gece | fdge afdf |\
gfba gfed | cdec A2 (fe) |\
dAFA GBAG | FAdf Adfa |\
gfed cbag | f2d2 d2 :|

%%sep 1 1 500
%%sep 1 1 500

